X: 3381
T: Mellonies Jig
O: Irish
%R: Jig
B: Niel Gow & Sons "Complete Repository" v.3 p.38 #1
Z: 2021 John Chambers <jc:trillian.mit.edu>
M: 6/8
L: 1/8
K: D
% - - - - - - - - - -
V: 1 staves=2
A |\
TF2A AFA | AFA AFD | (G/A/B).G (F/G/A).F | BGE TE2G ||\
TF2A AFA | AFA d2A | TB>cd AFd | AFD D2 :|
f/g/ |\
afd ~dfd | .e(.f.d) Tc2A | (G/A/B).G (F/G/A).F | BGE E2 f/g/ ||\
afd ~dfd | efd Tc2A | TB>cd AFd | AFD D2 ||
f/g/ |\
afd ~dfd | efd Tc2A | (G/A/B).G (F/G/A).F |\
BGE TE2 f/g/ || afd afd | efd {d}cBA | TB>cd AFd | AFD D2 |]
% - - - - - - - - - -
V: 2 clef=bass middle=d
z |\
d3 d3 | d3 d3 | g3 f3 | e3 e3 || d3 d3 | d3 f3 | g3 a3 | d3 d2 :|
z | d'3 d'3 | a3 a3 | g3 f3 | e3 e3 || d3 d'3 | a3 a3 | g3 a3 | d3 d2 ||
z | d'3 d'3 | a3 a3 | g3 f3 | e3 e2z || d'3 d'3 | a3 a3 | g3 a3 | d3 d2 |]


